X: 3287
M: 6/8
L: 1/8
K: Am
e |\
c2A AAA | agf e2d | c2A AAA | d2c B2d |\
c2A AAA | agf e2d | c2A BGB | A3  A2 :|
|: e |\
f2g agf | e2d c2a | c2A BGB | A3  A2 :|


